src/icons/svgs/24/bars-sort-down.svg

<svg width="24" height="24" viewBox="0 0 24 24" fill="none" xmlns="http://www.w3.org/2000/svg">
<path d="M9.75 17.1739H3.92813C3.43393 17.1739 3 17.5848 3 18.0527C3 18.5891 3.43393 19 3.92813 19H9.75C10.2804 19 10.7143 18.5891 10.7143 18.087C10.7143 17.5848 10.2804 17.1739 9.75 17.1739ZM20.0357 5H3.92813C3.43393 5 3 5.41087 3 5.8788C3 6.34674 3.43393 6.82609 3.92813 6.82609H20.0357C20.5661 6.82609 21 6.41522 21 5.94728C21 5.47935 20.5661 5 20.0357 5ZM14.8929 11.087H3.92813C3.43393 11.087 3 11.4978 3 11.9658C3 12.5022 3.43393 12.913 3.92813 12.913H14.8567C15.4232 12.913 15.8571 12.5022 15.8571 12C15.8571 11.4978 15.4232 11.087 14.8929 11.087Z" fill="black"/>
</svg>

<svg width="24" height="24" viewBox="0 0 24 24" xmlns="http://www.w3.org/2000/svg">
    <path d="M9.75 17.174H3.928c-.494 0-.928.41-.928.879 0 .536.434.947.928.947H9.75c.53 0 .964-.41.964-.913 0-.502-.434-.913-.964-.913ZM20.036 5H3.928C3.434 5 3 5.41 3 5.879c0 .468.434.947.928.947h16.108c.53 0 .964-.41.964-.879C21 5.48 20.566 5 20.036 5Zm-5.143 6.087H3.928c-.494 0-.928.41-.928.879 0 .536.434.947.928.947h10.929c.566 0 1-.41 1-.913 0-.502-.434-.913-.964-.913Z"/>
</svg>
